svg/N_Arrows/40.svg

<?xml version="1.0" encoding="UTF-8" standalone="no"?>
<!-- Created with Inkscape (http://www.inkscape.org/) -->
<svg
   xmlns:dc="http://purl.org/dc/elements/1.1/"
   xmlns:cc="http://web.resource.org/cc/"
   xmlns:rdf="http://www.w3.org/1999/02/22-rdf-syntax-ns#"
   xmlns:svg="http://www.w3.org/2000/svg"
   xmlns="http://www.w3.org/2000/svg"
   xmlns:sodipodi="http://sodipodi.sourceforge.net/DTD/sodipodi-0.dtd"
   xmlns:inkscape="http://www.inkscape.org/namespaces/inkscape"
   width="744.09448819"
   height="1052.3622047"
   id="svg2"
   sodipodi:version="0.32"
   inkscape:version="0.44.1"
   sodipodi:docbase="F:\QGIS_N_ARROWS\TOT"
   sodipodi:docname="20T.svg">
  <defs
     id="defs4" />
  <sodipodi:namedview
     id="base"
     pagecolor="#ffffff"
     bordercolor="#666666"
     borderopacity="1.0"
     inkscape:pageopacity="0.0"
     inkscape:pageshadow="2"
     inkscape:zoom="5.6"
     inkscape:cx="375"
     inkscape:cy="566.3352"
     inkscape:document-units="px"
     inkscape:current-layer="layer1"
     showgrid="true"
     showguides="false"
     inkscape:guide-bbox="true"
     inkscape:window-width="1280"
     inkscape:window-height="744"
     inkscape:window-x="-4"
     inkscape:window-y="-4">
    <sodipodi:guide
       orientation="horizontal"
       position="447.14286"
       id="guide2001" />
  </sodipodi:namedview>
  <metadata
     id="metadata7">
    <rdf:RDF>
      <cc:Work
         rdf:about="">
        <dc:format>image/svg+xml</dc:format>
        <dc:type
           rdf:resource="http://purl.org/dc/dcmitype/StillImage" />
      </cc:Work>
    </rdf:RDF>
  </metadata>
  <g
     inkscape:label="Livello 1"
     inkscape:groupmode="layer"
     id="layer1">
    <path
       sodipodi:type="arc"
       style="opacity:0.97000002;fill:none;fill-opacity:1;stroke:black;stroke-width:9.39999962;stroke-linecap:square;stroke-linejoin:miter;stroke-miterlimit:4;stroke-dasharray:none;stroke-opacity:1"
       id="path1872"
       sodipodi:cx="347.99756"
       sodipodi:cy="526.07269"
       sodipodi:rx="72.225906"
       sodipodi:ry="72.225906"
       d="M 420.22346 526.07269 A 72.225906 72.225906 0 1 1  275.77165,526.07269 A 72.225906 72.225906 0 1 1  420.22346 526.07269 z"
       transform="matrix(1.793901,0,0,1.759529,-226.3569,-421.2793)" />
    <path
       sodipodi:type="arc"
       style="opacity:0.97000002;fill:black;fill-opacity:1;stroke:black;stroke-width:9.39999962;stroke-linecap:square;stroke-linejoin:miter;stroke-miterlimit:4;stroke-dasharray:none;stroke-opacity:1"
       id="path1874"
       sodipodi:cx="344.71457"
       sodipodi:cy="525.31506"
       sodipodi:rx="4.2931485"
       sodipodi:ry="5.8083773"
       d="M 349.00772 525.31506 A 4.2931485 5.8083773 0 1 1  340.42142,525.31506 A 4.2931485 5.8083773 0 1 1  349.00772 525.31506 z"
       transform="matrix(2.024842,0,0,1.476896,-305.6869,-268.054)" />
    <path
       style="fill:black;fill-opacity:1;fill-rule:evenodd;stroke-width:1px;stroke-linecap:butt;stroke-linejoin:miter;stroke-opacity:1"
       d="M 391.3786,491.58647 L 384.2245,481.4665 L 391.3786,451.10659 L 391.3786,491.58647 z "
       id="path1876" />
    <path
       style="fill:black;fill-opacity:1;fill-rule:evenodd;stroke-width:1px;stroke-linecap:butt;stroke-linejoin:miter;stroke-opacity:1"
       d="M 391.07227,491.58647 L 398.22637,481.4665 L 391.07227,451.10659 L 391.07227,491.58647 z "
       id="path1878" />
    <g
       id="g1884"
       transform="matrix(0,1.57571,-3.576656,-1.556359e-4,2364.573,-90.43622)">
      <path
         id="path1886"
         d="M 380,547.36218 L 375,542.36218 L 380,527.36218 L 380,547.36218 z "
         style="fill:black;fill-opacity:1;fill-rule:evenodd;stroke-width:1px;stroke-linecap:butt;stroke-linejoin:miter;stroke-opacity:1" />
      <path
         id="path1888"
         d="M 379.91071,547.36218 L 384.91071,542.36218 L 379.91071,527.36218 L 379.91071,547.36218 z "
         style="fill:black;fill-opacity:1;fill-rule:evenodd;stroke-width:1px;stroke-linecap:butt;stroke-linejoin:miter;stroke-opacity:1" />
    </g>
    <flowRoot
       xml:space="preserve"
       id="flowRoot2029"
       style="font-size:56px;font-family:Arial Black"
       transform="translate(156.2568,208.1376)"><flowRegion
         id="flowRegion2031"><rect
           id="rect2033"
           width="68.571426"
           height="74.285713"
           x="321.42856"
           y="270.93362"
           style="font-size:56px;font-family:Arial Black" /></flowRegion><flowPara
         id="flowPara2035">E</flowPara></flowRoot>    <flowRoot
       xml:space="preserve"
       id="flowRoot2037"
       style="font-size:56px;font-family:Arial Black"
       transform="translate(53.67975,300.184)"><flowRegion
         id="flowRegion2039"><rect
           id="rect2041"
           width="68.571426"
           height="74.285713"
           x="321.42856"
           y="270.93362"
           style="font-size:56px;font-family:Arial Black" /></flowRegion><flowPara
         id="flowPara2043">S</flowPara></flowRoot>    <flowRoot
       xml:space="preserve"
       id="flowRoot2045"
       style="font-size:56px;font-family:Arial Black"
       transform="translate(48.7288,113.1833)"><flowRegion
         id="flowRegion2047"><rect
           id="rect2049"
           width="68.571426"
           height="74.285713"
           x="321.42856"
           y="270.93362"
           style="font-size:56px;font-family:Arial Black" /></flowRegion><flowPara
         id="flowPara2051">N</flowPara></flowRoot>    <flowRoot
       xml:space="preserve"
       id="flowRoot2053"
       style="font-size:56px;font-family:Arial Black"
       transform="translate(-40.88264,207.4234)"><flowRegion
         id="flowRegion2055"><rect
           id="rect2057"
           width="68.571426"
           height="74.285713"
           x="321.42856"
           y="270.93362"
           style="font-size:56px;font-family:Arial Black" /></flowRegion><flowPara
         id="flowPara2059">W</flowPara></flowRoot>    <path
       sodipodi:type="arc"
       style="opacity:0.97000002;fill:black;fill-opacity:1;stroke-width:9.39999962;stroke-linecap:square;stroke-linejoin:miter;stroke-miterlimit:4;stroke-dasharray:none;stroke-opacity:1"
       id="path2584"
       sodipodi:cx="350.08929"
       sodipodi:cy="526.20148"
       sodipodi:rx="6.1607141"
       sodipodi:ry="6.1607141"
       d="M 356.25001 526.20148 A 6.1607141 6.1607141 0 1 1  343.92858,526.20148 A 6.1607141 6.1607141 0 1 1  356.25001 526.20148 z"
       transform="matrix(0.235703,0.235703,-0.502149,0.502149,671.0318,92.90989)" />
    <path
       sodipodi:type="arc"
       style="opacity:0.97000002;fill:black;fill-opacity:1;stroke-width:9.39999962;stroke-linecap:square;stroke-linejoin:miter;stroke-miterlimit:4;stroke-dasharray:none;stroke-opacity:1"
       id="path2586"
       sodipodi:cx="350.08929"
       sodipodi:cy="526.20148"
       sodipodi:rx="6.1607141"
       sodipodi:ry="6.1607141"
       d="M 356.25001 526.20148 A 6.1607141 6.1607141 0 1 1  343.92858,526.20148 A 6.1607141 6.1607141 0 1 1  356.25001 526.20148 z"
       transform="matrix(0.235703,0.235703,-0.502149,0.502149,633.139,62.37056)" />
    <path
       sodipodi:type="arc"
       style="opacity:0.97000002;fill:black;fill-opacity:1;stroke-width:9.39999962;stroke-linecap:square;stroke-linejoin:miter;stroke-miterlimit:4;stroke-dasharray:none;stroke-opacity:1"
       id="path2588"
       sodipodi:cx="350.08929"
       sodipodi:cy="526.20148"
       sodipodi:rx="6.1607141"
       sodipodi:ry="6.1607141"
       d="M 356.25001 526.20148 A 6.1607141 6.1607141 0 1 1  343.92858,526.20148 A 6.1607141 6.1607141 0 1 1  356.25001 526.20148 z"
       transform="matrix(0.235703,-0.235703,0.502149,0.502149,-48.48814,267.3679)" />
    <path
       sodipodi:type="arc"
       style="opacity:0.97000002;fill:black;fill-opacity:1;stroke-width:9.39999962;stroke-linecap:square;stroke-linejoin:miter;stroke-miterlimit:4;stroke-dasharray:none;stroke-opacity:1"
       id="path2590"
       sodipodi:cx="350.08929"
       sodipodi:cy="526.20148"
       sodipodi:rx="6.1607141"
       sodipodi:ry="6.1607141"
       d="M 356.25001 526.20148 A 6.1607141 6.1607141 0 1 1  343.92858,526.20148 A 6.1607141 6.1607141 0 1 1  356.25001 526.20148 z"
       transform="matrix(0.235703,-0.235703,0.502149,0.502149,-7.893392,233.3536)" />
    <path
       sodipodi:type="arc"
       style="opacity:0.97000002;fill:black;fill-opacity:1;stroke-width:9.39999962;stroke-linecap:square;stroke-linejoin:miter;stroke-miterlimit:4;stroke-dasharray:none;stroke-opacity:1"
       id="path2592"
       sodipodi:cx="350.08929"
       sodipodi:cy="526.20148"
       sodipodi:rx="6.1607141"
       sodipodi:ry="6.1607141"
       d="M 356.25001 526.20148 A 6.1607141 6.1607141 0 1 1  343.92858,526.20148 A 6.1607141 6.1607141 0 1 1  356.25001 526.20148 z"
       transform="matrix(0.235703,-0.235703,0.502149,0.502149,107.2289,416.8547)" />
    <path
       sodipodi:type="arc"
       style="opacity:0.97000002;fill:black;fill-opacity:1;stroke-width:9.39999962;stroke-linecap:square;stroke-linejoin:miter;stroke-miterlimit:4;stroke-dasharray:none;stroke-opacity:1"
       id="path2594"
       sodipodi:cx="350.08929"
       sodipodi:cy="526.20148"
       sodipodi:rx="6.1607141"
       sodipodi:ry="6.1607141"
       d="M 356.25001 526.20148 A 6.1607141 6.1607141 0 1 1  343.92858,526.20148 A 6.1607141 6.1607141 0 1 1  356.25001 526.20148 z"
       transform="matrix(0.235703,-0.235703,0.502149,0.502149,146.5118,377.1568)" />
    <path
       sodipodi:type="arc"
       style="opacity:0.97000002;fill:black;fill-opacity:1;stroke-width:9.39999962;stroke-linecap:square;stroke-linejoin:miter;stroke-miterlimit:4;stroke-dasharray:none;stroke-opacity:1"
       id="path2596"
       sodipodi:cx="350.08929"
       sodipodi:cy="526.20148"
       sodipodi:rx="6.1607141"
       sodipodi:ry="6.1607141"
       d="M 356.25001 526.20148 A 6.1607141 6.1607141 0 1 1  343.92858,526.20148 A 6.1607141 6.1607141 0 1 1  356.25001 526.20148 z"
       transform="matrix(-0.235703,-0.235703,0.502149,-0.502149,152.5393,940.9112)" />
    <path
       sodipodi:type="arc"
       style="opacity:0.97000002;fill:black;fill-opacity:1;stroke-width:9.39999962;stroke-linecap:square;stroke-linejoin:miter;stroke-miterlimit:4;stroke-dasharray:none;stroke-opacity:1"
       id="path2598"
       sodipodi:cx="350.08929"
       sodipodi:cy="526.20148"
       sodipodi:rx="6.1607141"
       sodipodi:ry="6.1607141"
       d="M 356.25001 526.20148 A 6.1607141 6.1607141 0 1 1  343.92858,526.20148 A 6.1607141 6.1607141 0 1 1  356.25001 526.20148 z"
       transform="matrix(0.235703,0.235703,-0.502149,0.502149,484.9749,217.1093)" />
  </g>
</svg>

<svg xmlns="http://www.w3.org/2000/svg" viewBox="0 0 744.09 1052.36" xmlns:xlink="http://www.w3.org/1999/xlink"><defs><path id="0" d="M356.25001 526.20148A6.160714 6.160714 0 1 1 343.92858 526.20148 6.160714 6.160714 0 1 1 356.25001 526.20148" opacity=".97" stroke-width="9.4" stroke-linecap="square"/><path id="1" d="m321.43 270.93h68.57v74.28h-68.57z"/></defs><g stroke="#000" stroke-linecap="square" stroke-width="9.4"><path d="M420.22346 526.07269A72.22591 72.22591 0 1 1 275.77165 526.07269 72.22591 72.22591 0 1 1 420.22346 526.07269z" transform="matrix(1.7939 0 0 1.75953-226.36-421.28)" opacity=".97" fill="none"/><path d="M349.00772 525.31506A4.293149 5.808377 0 1 1 340.42142 525.31506 4.293149 5.808377 0 1 1 349.00772 525.31506z" transform="matrix(2.02484 0 0 1.4769-305.69-268.05)" opacity=".97"/></g><g fill-rule="evenodd"><path d="m391.38 491.59l-7.154-10.12 7.154-30.36v40.48"/><path d="m391.07 491.59l7.154-10.12-7.154-30.36v40.48"/><g transform="matrix(0 1.57571-3.57666-.00016 2364.57-90.44)"><path d="m380 547.36l-5-5 5-15v20"/><path d="m379.91 547.36l5-5-5-15v20"/></g></g><g font-family="Arial Black" font-size="56"><flowRoot transform="translate(156.26 208.14)"><flowRegion><use xlink:href="#1"/></flowRegion><flowPara>E</flowPara></flowRoot><flowRoot transform="translate(53.68 300.18)"><flowRegion><use xlink:href="#1"/></flowRegion><flowPara>S</flowPara></flowRoot><flowRoot transform="translate(48.729 113.18)"><flowRegion><use xlink:href="#1"/></flowRegion><flowPara>N</flowPara></flowRoot><flowRoot transform="translate(-40.883 207.42)"><flowRegion><use xlink:href="#1"/></flowRegion><flowPara>W</flowPara></flowRoot></g><use transform="matrix(.2357.2357-.50215.50215 671.03 92.91)" xlink:href="#0"/><use transform="matrix(.2357.2357-.50215.50215 633.14 62.37)" xlink:href="#0"/><use transform="matrix(.2357-.2357.50215.50215-48.49 267.37)" xlink:href="#0"/><use transform="matrix(.2357-.2357.50215.50215-7.893 233.35)" xlink:href="#0"/><use transform="matrix(.2357-.2357.50215.50215 107.23 416.85)" xlink:href="#0"/><use transform="matrix(.2357-.2357.50215.50215 146.51 377.16)" xlink:href="#0"/><use transform="matrix(-.2357-.2357.50215-.50215 152.54 940.91)" xlink:href="#0"/><use transform="matrix(.2357.2357-.50215.50215 484.97 217.11)" xlink:href="#0"/></svg>
